X:1
T:The Stage
L:1/8
M:4/4
I:linebreak $
K:G
V:1 treble 
V:1
|: (3def | g>ag>e d>gb>d | c>fa>c B>dg>d | B>Gd>B c>Aa>g | (3fgf (3efe d>ef>d |$ g>ag>e d>gb>d | %6
 c>fa>c B>dg>d | B>gf>g e>cA>F | G2 G2 G2 :: d>c |$ B>GF>G E>GD>G | B,>DG>B c>BA>G | %12
 A>^GA>B c>BA>G | (3GBG (3FGE (3DEC (3B,CA, |$ G,>B,D>G B>dc>B | c>de>f g>fg>e | d>bc>a e>cA>F | %17
 G2 G2 G2 :| %18
